src/assets/images/header/site-logo-corebiz-preto-cinza.svg

<svg width="300" height="68" viewBox="0 0 300 68" fill="none" xmlns="http://www.w3.org/2000/svg">
<path d="M232.305 67.8357H221.796V20.561H232.305V67.8357Z" fill="black"/>
<path d="M22.8106 30.2542C21.1858 30.2319 19.5743 30.5529 18.08 31.1966C16.5857 31.8404 15.2417 32.7925 14.1344 33.9918C11.7719 36.4562 10.5906 39.8652 10.5906 44.1778C10.5906 48.4905 11.7719 51.9816 14.1752 54.4871C15.2994 55.7006 16.6629 56.6636 18.1782 57.3144C19.6934 57.9651 21.3268 58.2892 22.9735 58.2658C26.0692 58.2658 28.554 57.4032 30.4277 55.7193C32.1697 54.1875 33.4534 52.1962 34.1344 49.9691L43.4216 53.3781C42.1996 57.3622 39.8371 60.8123 36.334 63.6874C32.831 66.5625 28.391 68 22.9735 68C16.4562 68 10.998 65.741 6.59878 61.1819C2.19959 56.6229 0 50.9548 0 44.1778C0 37.3187 2.15886 31.6506 6.51731 27.1737C10.8758 22.6968 16.2525 20.4378 22.7291 20.4378C28.2688 20.4378 32.7902 21.8753 36.2933 24.7504C39.6145 27.3823 42.001 31.028 43.0957 35.1418L33.6049 38.633C33.0351 36.3589 31.8173 34.3028 30.1018 32.7185C28.3136 31.0756 25.9104 30.2542 22.8106 30.2542Z" fill="black"/>
<path d="M60.8595 54.3639C62.0305 55.5587 63.4245 56.5081 64.961 57.1573C66.4976 57.8065 68.1463 58.1427 69.8123 58.1465C71.4783 58.1504 73.1285 57.8217 74.668 57.1796C76.2075 56.5374 77.6057 55.5944 78.7821 54.4049C81.2261 51.8995 82.4481 48.4494 82.4481 43.9725C82.4481 39.5777 81.2261 36.1686 78.7821 33.7043C76.391 31.3353 73.1729 30.0079 69.8208 30.0079C66.4686 30.0079 63.2506 31.3353 60.8595 33.7043C58.4155 36.1686 57.1935 39.5777 57.1935 43.9725C57.1935 48.3672 58.4155 51.8584 60.8595 54.3639ZM69.8208 20.4378C76.6232 20.4378 82.2444 22.6557 86.6436 27.0916C91.0428 31.5274 93.2831 37.1544 93.2831 44.0135C93.2831 50.8727 91.0835 56.4996 86.6436 60.9766C82.2037 65.4535 76.6232 67.6714 69.8208 67.6714C63.0998 67.6714 57.5193 65.4535 53.0794 60.9766C48.6395 56.4996 46.4399 50.8316 46.4399 44.0135C46.4399 37.1955 48.6395 31.5685 53.0794 27.0916C57.5193 22.6146 63.0591 20.4378 69.8208 20.4378Z" fill="black"/>
<path d="M120.697 20.7253V31.5274C119.551 31.3501 118.394 31.254 117.234 31.2399C109.251 31.2399 105.299 35.1829 105.299 43.9314V67.6714H94.7088V20.561H105.014V28.1184C106.027 25.7397 107.788 23.7626 110.024 22.4914C112.41 21.0962 115.129 20.386 117.886 20.4378C118.83 20.4296 119.773 20.526 120.697 20.7253Z" fill="black"/>
<path d="M135.157 39.167H158.741C158.704 37.8377 158.399 36.5299 157.846 35.3227C157.293 34.1155 156.503 33.034 155.523 32.1435C153.527 30.2542 150.635 29.3095 146.888 29.3095C143.466 29.3095 140.697 30.2952 138.619 32.2667C136.542 34.2382 135.36 36.5547 135.157 39.167ZM160.004 50.7495L169.658 53.5835C168.273 57.6497 165.707 61.0176 161.919 63.6874C158.13 66.3571 153.487 67.6714 147.947 67.6714C141.104 67.6714 135.32 65.4946 130.554 61.1819C125.788 56.8693 123.385 51.078 123.385 43.8082C123.385 36.9901 125.707 31.3631 130.35 27.0094C134.752 22.7277 140.65 20.3668 146.766 20.4378C154.138 20.4378 159.882 22.5325 164.037 26.6808C168.191 30.8292 170.265 36.4562 170.265 43.5371C170.265 45.4264 170.183 46.5354 169.98 46.9051H134.868C134.912 48.4943 135.29 50.0559 135.979 51.4863C136.667 52.9167 137.649 54.1832 138.859 55.2017C141.396 57.3916 144.645 58.5615 147.984 58.4876C154.138 58.5122 158.171 55.9246 160.004 50.7495Z" fill="black"/>
<path d="M183.263 67.8357H172.509V0H183.344V27.3134C184.485 25.424 186.358 23.8222 188.965 22.5489C191.765 21.2169 194.832 20.5562 197.927 20.6185C204.648 20.6185 209.902 22.7954 213.69 27.1901C217.479 31.5849 219.352 37.1708 219.352 43.9889C219.352 50.9302 217.356 56.5982 213.405 61.0751C209.454 65.5521 204.159 67.7289 197.56 67.7289C190.961 67.7289 186.196 65.3878 183.263 60.6644V67.8357ZM204.729 54.4049C207.051 51.8584 208.191 48.4083 208.191 44.0546C208.191 39.7009 207.051 36.2919 204.77 33.7864C202.489 31.281 199.475 30.0488 195.727 30.0488C192.102 30.0488 189.128 31.281 186.766 33.7864C184.403 36.2919 183.263 39.7009 183.263 44.0546C183.263 48.4083 184.444 51.7763 186.766 54.3639C189.088 56.9514 192.102 58.2247 195.727 58.2247C199.434 58.2247 202.407 56.9514 204.729 54.4049Z" fill="black"/>
<path d="M282 67.7946H235.646V58.5122L264.933 29.9256H235.157V20.561H281.919V29.5724L252.265 58.4054H282V67.8111V67.7946Z" fill="black"/>
<path d="M287.172 65.8282C286.469 65.1413 285.913 64.3178 285.54 63.4083C285.167 62.4989 284.983 61.5228 285.001 60.5399C284.983 59.5511 285.166 58.5689 285.539 57.653C285.912 56.7371 286.468 55.9067 287.172 55.212C287.849 54.4932 288.67 53.9249 289.581 53.5442C290.492 53.1634 291.473 52.9787 292.46 53.002C294.459 53.0041 296.375 53.7989 297.788 55.2121C299.201 56.6252 299.996 58.5413 299.998 60.5399C300.021 61.5271 299.837 62.5081 299.456 63.4193C299.075 64.3304 298.507 65.1512 297.788 65.8282C297.091 66.5292 296.26 67.0827 295.345 67.4556C294.43 67.8286 293.448 68.0133 292.46 67.9988C291.477 68.0166 290.501 67.8333 289.592 67.46C288.682 67.0867 287.859 66.5314 287.172 65.8282Z" fill="#BFBFBF"/>
</svg>

<svg width="300" height="68" fill="none" xmlns="http://www.w3.org/2000/svg"><path d="M232.305 67.836h-10.509V20.56h10.509v47.275zM22.81 30.254a11.555 11.555 0 00-4.73.943 11.639 11.639 0 00-3.946 2.795c-2.362 2.464-3.543 5.873-3.543 10.186s1.18 7.804 3.584 10.31a11.812 11.812 0 004.003 2.826c1.515.651 3.149.975 4.796.952 3.095 0 5.58-.863 7.454-2.547a12.537 12.537 0 003.706-5.75l9.288 3.41c-1.222 3.983-3.585 7.433-7.088 10.308C32.831 66.563 28.391 68 22.974 68c-6.518 0-11.976-2.259-16.375-6.818C2.199 56.622 0 50.955 0 44.178c0-6.86 2.159-12.527 6.517-17.004 4.359-4.477 9.736-6.736 16.212-6.736 5.54 0 10.061 1.437 13.564 4.312a19.727 19.727 0 016.803 10.392l-9.491 3.491a12.029 12.029 0 00-3.503-5.915c-1.788-1.642-4.192-2.464-7.291-2.464zm38.05 24.11a12.623 12.623 0 004.101 2.793 12.537 12.537 0 009.707.023 12.621 12.621 0 004.114-2.775c2.444-2.505 3.666-5.956 3.666-10.433 0-4.394-1.222-7.803-3.666-10.268a12.732 12.732 0 00-8.961-3.696c-3.352 0-6.57 1.327-8.962 3.696-2.444 2.465-3.666 5.874-3.666 10.268 0 4.395 1.223 7.886 3.666 10.392zm8.96-33.926c6.803 0 12.424 2.218 16.824 6.654 4.399 4.435 6.64 10.062 6.64 16.922 0 6.859-2.2 12.486-6.64 16.963-4.44 4.477-10.02 6.694-16.823 6.694-6.721 0-12.302-2.218-16.742-6.694-4.44-4.477-6.64-10.145-6.64-16.963 0-6.819 2.2-12.446 6.64-16.922 4.44-4.477 9.98-6.654 16.742-6.654zm50.877.287v10.802a24.604 24.604 0 00-3.463-.287c-7.983 0-11.935 3.943-11.935 12.691v23.74h-10.59v-47.11h10.305v7.557a11.778 11.778 0 015.01-5.627 15.014 15.014 0 017.862-2.053c.944-.008 1.887.088 2.811.287zm14.46 18.442h23.584a9.893 9.893 0 00-.895-3.844 9.82 9.82 0 00-2.323-3.18c-1.996-1.889-4.888-2.834-8.635-2.834-3.422 0-6.191.986-8.269 2.958-2.077 1.971-3.259 4.288-3.462 6.9zm24.847 11.582l9.654 2.834c-1.385 4.067-3.951 7.435-7.739 10.104-3.789 2.67-8.432 3.984-13.972 3.984-6.843 0-12.627-2.176-17.393-6.49-4.766-4.312-7.169-10.103-7.169-17.373 0-6.818 2.322-12.445 6.965-16.799a23.157 23.157 0 0116.416-6.571c7.372 0 13.116 2.095 17.271 6.243 4.154 4.148 6.228 9.775 6.228 16.856 0 1.89-.082 2.998-.285 3.368h-35.112c.044 1.59.422 3.15 1.111 4.581a11.203 11.203 0 002.88 3.716 13.506 13.506 0 009.125 3.286c6.154.024 10.187-2.563 12.02-7.739zm23.259 17.087h-10.754V0h10.835v27.313c1.141-1.889 3.014-3.49 5.621-4.764a19.924 19.924 0 018.962-1.93c6.721 0 11.975 2.176 15.763 6.571 3.789 4.395 5.662 9.98 5.662 16.799 0 6.941-1.996 12.61-5.947 17.086-3.951 4.477-9.246 6.654-15.845 6.654s-11.364-2.341-14.297-7.065v7.172zm21.466-13.431c2.322-2.547 3.462-5.997 3.462-10.35 0-4.354-1.14-7.763-3.421-10.269-2.281-2.505-5.295-3.737-9.043-3.737-3.625 0-6.599 1.232-8.961 3.737-2.363 2.506-3.503 5.915-3.503 10.269 0 4.353 1.181 7.721 3.503 10.309 2.322 2.587 5.336 3.86 8.961 3.86 3.707 0 6.68-1.273 9.002-3.82zM282 67.795h-46.354v-9.283l29.287-28.586h-29.776V20.56h46.762v9.011l-29.654 28.833H282v9.406-.016z" fill="#000"/><path d="M287.172 65.828a7.209 7.209 0 01-2.171-5.288 7.302 7.302 0 012.171-5.328 7.037 7.037 0 015.288-2.21 7.545 7.545 0 017.538 7.538 7.038 7.038 0 01-2.21 5.288 7.365 7.365 0 01-5.328 2.17 7.206 7.206 0 01-5.288-2.17z" fill="#BFBFBF"/></svg>
